!!!!SEGMENT: pl-kk--kk-i-40--007-002_palestrina-giovanni-pierluigi-da--missa-sacerdos-et-pontifex-et-in-terra.krn
!!!cenid: 16xx:1302
!!!COM: Palestrina, Giovanni Pierluigi da
!!!COM-rismID:
!!!CDT: ~1525-1594/02/02
!!!CNT: Italian
!!!OPR: Missa Sacerdos et Pontifex
!!!OTL: Et in terra
!!!OMV: 002
!!!PDT:
!!!AGN: Sacred; Mass
!!!SMS-siglum: PL-Kk
!!!SMS-shelfmark: Kk.I.40
!!!SMS-shelfwork: 007-002 M
!!!SMS-variant:
!!!SMS-altvar:
!!!NIFC-rismSourceID: 1001154493
!!!NIFC-islandoraID: pl-kk:2717
!!!URL-pdf-islandora: https://repozytorium.nifc.pl/islandora/object/pl-kk%3A2717/datastream/PDF/view
!!!URL-scan: https://polish.musicsources.pl/pl/lokalizacje/galeria/rekopisy/6010 @EN{Scan on Polish Music Herritage in Open Access Website} @PL{Skany w portalu Dziedzictwo Muzyki Polskiej w otwartym dostępie}
!!!ONB-nifc: UWAGA: części Mszy: 1. Kyrie, 2. Et in terra, 3. Sanctus, 4. Benedictus, 5. Agnus Dei. Skan 0010-0011
!!!AIN: 1 empty
!!!key:
**kern	**text
*Iempty	*
*I"Baſso Ripieno.	*
*clefF3	*
*k[b-]	*
*g:dor	*
*M2/1	*
*met(c|)	*
=1-	=1-
!LO:TX:a:t=P:problem=w źródle znaki przykluczowe B- i BB-, zapisane jeden nad drugim	!
0G	Et
=2-	=2-
1G	in
1D	ter-
=3-	=3-
!LO:TX:t=P:problem=kreska pseudotaktowa	!
1C	-ra
1G	pax
=4-	=4-
1C	ho-
*2\right	*
!LO:TX:t=P:problem=2\right&colon; global	!
2G\	-mi-
!LO:TX:t=P:problem=kreska pseudotaktowa	!
2D/	-ni-
=5-	=5-
2G,<\	-b(us)
1E-X	bo-
2F/	-nae
=6-	=6-
2BB-/	vo-
!LO:TX:t=P:problem=kreska pseudotaktowa	!
2BB-/	-lun-
[<2C/	-ta-
2C/]	.
=7-	=7-
!LO:TX:t=P:problem=kreska pseudotaktowa	!
1F	-tis
0r	.
=8-	=8-
!LO:TX:t=P:problem=kreska pseudotaktowa	!
1r	.
=9-	=9-
2r	.
1B-	be-
!LO:TX:t=P:problem=kreska pseudotaktowa	!
2B-\	-ne-
=10-	=10-
1G	-di-
2F\	-ci-
!LO:TX:t=P:problem=kreska pseudotaktowa	!
2F\	-mus
=11-	=11-
2B-,>\	Te
1G	a-
!LO:TX:t=P:problem=kreska pseudotaktowa	!
2G\	-do-
=12-	=12-
1E-X	-ra-
1C	-m(us)
=13-	=13-
!LO:TX:t=P:problem=kreska pseudotaktowa	!
1G	Te
!LO:TX:t=P:problem=kreska pseudotaktowa	!
1r	.
!LO:LB:g=original	!
=14-	=14-
2r	.
2G\	glo-
2G\	-ri-
!LO:TX:t=P:problem=kreska pseudotaktowa	!
2F#X\	-fi-
=15-	=15-
1G	-ca-
1D,<	-m(us)
=16-	=16-
!LO:TX:t=P:problem=kreska pseudotaktowa	!
1G	Te
2rD	.
1C/	Gra-
=17-	=17-
2C/	-ti-
!LO:TX:t=P:problem=kreska pseudotaktowa	!
1C	-as
=18-	=18-
1.Fny	a-
2C/	-gi-
=19-	=19-
!LO:TX:t=P:problem=kreska pseudotaktowa	!
1G	-m(us)
1B-	Ti-
=20-	=20-
!LO:TX:t=P:problem=kreska pseudotaktowa	!
0F,<	-bi.
=21-	=21-
00r	.
=22-	=22-
.	.
=23-	=23-
00r	.
=24-	=24-
.	.
=25-	=25-
2r	.
2.B-\	Do-
4B-\	-mi-
!LO:TX:t=P:problem=kreska pseudotaktowa	!
2A\	-ne
=26-	=26-
2G\	De-
2F#X\	-us
2G\	Rex
2D/	cae-
=27-	=27-
1d	-leſ-
!LO:TX:t=P:problem=kreska pseudotaktowa	!
1c	-tis
=28-	=28-
2r	.
1Fny	De-
2C/	-(us)
=29-	=29-
2D/	Pa-
!LO:TX:t=P:problem=kreska pseudotaktowa	!
2A\	-ter
1B-	Om-
=30-	=30-
2F\	-ni-
2G\	-po-
*lig	*
1A	-tens
=31-	=31-
!LO:TX:t=P:problem=kreska pseudotaktowa	!
1D	.
*Xlig	*
!LO:LB:g=original	!
00r	.
=32-	=32-
.	.
=33-	=33-
!LO:TX:t=P:problem=kreska pseudotaktowa	!
0rF	.
=34-	=34-
0.G	JE-
=35-	=35-
.	.
=36-	=36-
0C	-SU
=37-	=37-
0E-X	X-
=38-	=38-
!LO:TX:t=P:problem=kreska pseudotaktowa	!
0.D	-te
=39-	=39-
00r	.
=40-	=40-
.	.
=41-	=41-
!LO:TX:t=P:problem=kreska pseudotaktowa	!
0r	.
=42-	=42-
2r	.
2.A\	Fi-
=43-	=43-
4A\	-li-
!LO:TX:t=P:problem=kreska pseudotaktowa	!
2A\	-us
2.D/	Pa-
4E/ny	.
=44-	=44-
4F\	.
4G\	.
4A\	.
!LO:TX:t=P:problem=kreska pseudotaktowa	!
4B-\	.
2c\	.
2G\	.
=45-	=45-
0A	.
=46-	=46-
!LO:TX:t=P:problem=kreska pseudotaktowa	!
0F	tris
=47-	=47-
2r	.
2.G\	Fi-
4G\	-li-
!LO:TX:t=P:problem=kreska pseudotaktowa	!
2F#X\	-(us)
=48-	=48-
0G	Pa-
=49-	=49-
!LO:TX:t=P:problem=podwójna kreska pseudotaktowa	!
0D;>	-tris
!LO:LB:g=original	!
=50||-	=50||-
*M2/1	*
*met(c|)	*
00r	.
=51-	=51-
.	.
=52-	=52-
00r	.
=53-	=53-
.	.
=54-	=54-
!LO:TX:t=P:problem=kreska pseudotaktowa	!
00r	.
=55-	=55-
.	.
=56-	=56-
1.G	Mi-
2G\	-se-
=57-	=57-
!LO:TX:t=P:problem=kreska pseudotaktowa	!
1C	-re-
2.G\	-re
4A\	.
=58-	=58-
!LO:TX:t=P:problem=kreska pseudotaktowa	!
1B-	.
0Fny	no-
=59-	=59-
!LO:TX:t=P:problem=kreska pseudotaktowa	!
1BB-	-bis
=60-	=60-
!LO:TX:t=P:problem=kreska pseudotaktowa	!
1r	.
1G	Qui
=61-	=61-
1B-	tol-
2A,>\	-lis
2F\	p(ec-
=62-	=62-
2G\	-ca)-
2F\	-ta
!LO:TX:t=P:problem=kreska pseudotaktowa	!
1E-X	mun-
=63-	=63-
2D,</	-di
1BB-	Suſ-
2BB-/	-ci-
=64-	=64-
!LO:TX:t=P:problem=kreska pseudotaktowa	!
1BB-	-pe
1.F	de-
=65-	=65-
2F\	-pre-
2F\	-ca-
2F\	-ti-
=66-	=66-
0C	-o-
=67-	=67-
!LO:TX:t=P:problem=kreska pseudotaktowa	!
0G	-nem
=68-	=68-
0D	no-
=69-	=69-
!LO:TX:t=P:problem=kreska pseudotaktowa	!
1G,<	-stram
!LO:LB:g=original	!
2r	.
2G\	Qui
=70-	=70-
1G	se-
2D,</	-des
2A\	ad
=71-	=71-
2G\	dex-
2G\	-te-
!LO:TX:t=P:problem=kreska pseudotaktowa	!
1F	-ra(m)
=72-	=72-
1c	Pa-
!LO:TX:t=P:problem=kreska pseudotaktowa	!
1d,<	-tris
=73-	=73-
2rA	.
1d	mi-
2c\	-ſe-
=74-	=74-
2B-\	-re-
2A\	-re
1G	no-
=75-	=75-
!LO:TX:t=P:problem=kreska pseudotaktowa	!
1F	-bis.
0r	.
=76-	=76-
!LO:TX:t=P:problem=kreska pseudotaktowa	!
1r	.
=77-	=77-
2r	.
1F	Quo-
2C/	-ni-
=78-	=78-
!LO:TX:t=P:problem=kreska pseudotaktowa	!
1C	-am
2rA	.
2c\	Tu
=79-	=79-
2B-\	so-
2A\	-l(us)
1G	S(an)-
=80-	=80-
!LO:TX:t=P:problem=kreska pseudotaktowa	!
1F	-ct(us)
0r	.
=81-	=81-
1A	Tu
=82-	=82-
2G\	so-
2F\	-l(us)
2E/ny	Do-
2E/	-mi-
=83-	=83-
2D,</	-n(us)
2D/	Tu
1A	so-
=84-	=84-
!LO:TX:t=P:problem=kreska pseudotaktowa	!
1B-	-l(us)
1c	al-
=85-	=85-
1d	-tiſ-
1D	-si-
=86-	=86-
!LO:TX:t=P:problem=kreska pseudotaktowa	!
1G	-m(us)
!LO:LB:g=original	!
0E	Je-
=87-	=87-
1D	-su
=88-	=88-
0C	X-
=89-	=89-
!LO:TX:t=P:problem=kreska pseudotaktowa	!
1BB-,<	-te
1F	Cum
=90-	=90-
1C	S(an)-
!LO:TX:t=P:problem=kreska pseudotaktowa	!
1D	-cto
=91-	=91-
2.F\	Spi-
4G\	.
2A\	-ri-
2A\	-tu
=92-	=92-
!LO:TX:t=P:problem=kreska pseudotaktowa	!
1E	.
2rA	.
2d\	in
=93-	=93-
2d\	glo-
!LO:TX:t=P:problem=kreska pseudotaktowa	!
2c\	-ri-
2d,<\	-a
2.d\	De-
=94-	=94-
4c\	.
4B-\	.
4A\	.
2G\	.
2E-X/	-i
=95-	=95-
1D	Pa-
!LO:TX:t=P:problem=kreska pseudotaktowa	!
1G,<	-tris
=96-	=96-
0r	.
=97-	=97-
!LO:TX:t=P:problem=kreska pseudotaktowa	!
1r	.
2r	.
2d\	in
=98-	=98-
2d\	glo-
!LO:TX:t=P:problem=kreska pseudotaktowa	!
2c\	-ri-
2d,<\	-a
2.d\	De-
=99-	=99-
4c\	.
4B-\	.
4A\	.
1G	-i
=100-	=100-
!LO:TX:t=P:problem=kreska pseudotaktowa	!
1D	.
1G	Pa-
=101-	=101-
2G,>\	-tris
1C	De-
!LO:TX:t=P:problem=kreska pseudotaktowa	!
2C/	-i
=102-	=102-
2.D/	Pa-
4E/ny	.
2F/	-tris
2G/	.
=103-	=103-
0D	a-
=104-	=104-
0G;>	-men
=-	=-
*-	*-
!!!RDF**kern: > = above
!!!RDF**kern: < = below
!!!EED: Antoni Szymański
!!!EEV: 2021-07-31
!!!ENC: Tomasz Grochalski
!!!END: 2021-07-04
